X:1
T:Pomona -- Hornpipe
R:hornpipe
B:Cole's 1000 Fiddle Tunes
M:2/4
L:1/16
K:G
((3uDEF)|G2GA BcdB|{d}cBcd e2((3def)|gfge dBGB|cBAG FADF|
G2GA BcdB|{d}cBcd edef|gfge dBGA|B2G2G2:|
|:((3udef)|{a}gfga bgdB|{d}cBc"4"e dcBd|\
{a}gfga bgdB|cdef gfga|
bagb agfa|{a}gfge dBGB|dgfg ecAF|G2G2G2:|
